;FLAVOR:Marlin
;TIME:14542
;Filament used: 17.4003m
;Layer height: 0.28
;MINX:84.326
;MINY:39.492
;MINZ:0.28
;MAXX:135.674
;MAXY:180.508
;MAXZ:49.84
;Generated with Cura_SteamEngine 5.2.1
M82 ;absolute extrusion mode
; Ender 3 Custom Start G-code
G92 E0 ; Reset Extruder
G28 ; Home all axes
M104 S175 ; Start heating up the nozzle most of the way
M190 S60 ; Start heating the bed, wait until target temperature reached
M109 S200 ; Finish heating the nozzle
G1 Z2.0 F3000 ; Move Z Axis up little to prevent scratching of Heat Bed
G1 X0.1 Y20 Z0.3 F5000.0 ; Move to start position
G1 X0.1 Y200.0 Z0.3 F1500.0 E15 ; Draw the first line
G1 X0.4 Y200.0 Z0.3 F5000.0 ; Move to side a little
G1 X0.4 Y20 Z0.3 F1500.0 E30 ; Draw the second line
G92 E0 ; Reset Extruder
G1 Z2.0 F3000 ; Move Z Axis up little to prevent scratching of Heat Bed
G1 X5 Y20 Z0.3 F5000.0 ; Move over to prevent blob squish
G92 E0
G92 E0
G1 F1500 E-6.5
;LAYER_COUNT:178
;LAYER:0
M107
G0 F6000 X87.216 Y50.566 Z0.28
;TYPE:SKIRT
G1 F1500 E0
G1 F1200 X87.634 Y49.895 E0.03681
G1 X88.117 Y49.271 E0.07355
G1 X88.661 Y48.698 E0.11035
G1 X89.26 Y48.184 E0.1471
G1 X89.908 Y47.733 E0.18386
G1 X90.599 Y47.349 E0.22067
G1 X91.324 Y47.038 E0.2574
G1 X91.898 Y46.858 E0.28542
G1 X91.922 Y46.447 E0.30459
G1 X92.047 Y45.667 E0.34137
G1 X92.25 Y44.904 E0.37813
G1 X92.53 Y44.166 E0.41489
G1 X92.883 Y43.459 E0.45169
G1 X93.305 Y42.792 E0.48844
G1 X93.793 Y42.171 E0.52521
G1 X94.341 Y41.602 E0.562
G1 X94.943 Y41.092 E0.59874
G1 X95.594 Y40.645 E0.63551
G1 X96.287 Y40.267 E0.67227
G1 X97.015 Y39.96 E0.70906
G1 X97.77 Y39.728 E0.74583
G1 X98.545 Y39.574 E0.78263
G1 X99.676 Y39.492 E0.83543
G1 X120.83 Y39.492 E1.82045
G1 X121.619 Y39.532 E1.85723
G1 X122.399 Y39.651 E1.89397
G1 X123.164 Y39.849 E1.93077
G1 X123.904 Y40.123 E1.96751
G1 X124.613 Y40.471 E2.00429
G1 X125.284 Y40.889 E2.0411
G1 X125.908 Y41.372 E2.07784
G1 X126.481 Y41.915 E2.1146
G1 X126.996 Y42.514 E2.15139
G1 X127.447 Y43.162 E2.18815
G1 X127.831 Y43.853 E2.22496
G1 X128.143 Y44.578 E2.26171
G1 X128.38 Y45.331 E2.29847
G1 X128.539 Y46.105 E2.33526
G1 X128.614 Y46.828 E2.36911
G1 X129.567 Y47.181 E2.41643
G1 X130.276 Y47.529 E2.45321
G1 X130.947 Y47.947 E2.49002
G1 X131.571 Y48.43 E2.52676
G1 X132.144 Y48.973 E2.56352
G1 X132.659 Y49.572 E2.60031
G1 X133.11 Y50.22 E2.63707
G1 X133.494 Y50.911 E2.67388
G1 X133.806 Y51.636 E2.71063
G1 X134.043 Y52.389 E2.74739
G1 X134.202 Y53.163 E2.78418
G1 X134.283 Y53.948 E2.82093
G1 X134.293 Y54.35 E2.83965
G1 X134.293 Y57.749 E2.99793
G1 X134.253 Y58.538 E3.03471
G1 X134.134 Y59.318 E3.07145
G1 X133.936 Y60.083 E3.10825
G1 X133.662 Y60.823 E3.14499
G1 X133.314 Y61.532 E3.18177
G1 X132.896 Y62.203 E3.21858
G1 X132.413 Y62.827 E3.25532
G1 X131.87 Y63.4 E3.29208
G1 X131.271 Y63.915 E3.32886
G1 X130.623 Y64.366 E3.36563
G1 X129.932 Y64.75 E3.40244
G1 X129.184 Y65.069 E3.4403
G1 X128.849 Y65.751 E3.47568
G1 X128.431 Y66.422 E3.51249
G1 X127.948 Y67.046 E3.54924
G1 X127.405 Y67.619 E3.586
G1 X126.941 Y68.018 E3.61449
G1 X126.888 Y68.187 E3.62274
G1 X126.577 Y68.913 E3.65952
G1 X126.194 Y69.603 E3.69626
G1 X125.743 Y70.251 E3.73303
G1 X125.228 Y70.851 E3.76984
G1 X124.893 Y71.17 E3.79138
G1 X124.894 Y73.064 E3.87958
G1 X124.854 Y73.852 E3.91632
G1 X124.735 Y74.633 E3.9531
G1 X124.538 Y75.398 E3.98989
G1 X124.264 Y76.138 E4.02663
G1 X123.917 Y76.848 E4.06343
G1 X123.5 Y77.518 E4.10018
G1 X123.017 Y78.143 E4.13696
G1 X122.474 Y78.716 E4.17371
G1 X121.875 Y79.231 E4.2105
G1 X121.227 Y79.683 E4.24729
G1 X120.537 Y80.067 E4.28406
G1 X119.812 Y80.379 E4.32081
G1 X119.059 Y80.616 E4.35757
G1 X118.286 Y80.776 E4.39432
G1 X117.5 Y80.857 E4.43112
G1 X116.71 Y80.859 E4.4679
G1 X116.152 Y80.811 E4.49398
G1 X112.756 Y80.398 E4.65328
G1 X111.978 Y80.263 E4.69005
G1 X111.716 Y80.19 E4.70271
G1 X107.772 Y79.908 E4.88683
G1 X107.662 Y79.929 E4.89204
G1 X106.576 Y80 E4.94272
G1 X104.801 Y79.992 E5.02537
G1 X104.686 Y79.997 E5.03073
G1 X103.048 Y79.991 E5.10701
G1 X102.26 Y79.948 E5.14375
G1 X101.48 Y79.826 E5.18051
G1 X100.716 Y79.625 E5.2173
G1 X99.976 Y79.348 E5.25409
G1 X99.269 Y78.998 E5.29083
G1 X98.6 Y78.578 E5.32761
G1 X97.977 Y78.093 E5.36437
G1 X97.406 Y77.547 E5.40116
G1 X96.894 Y76.946 E5.43792
G1 X96.445 Y76.296 E5.47471
G1 X96.064 Y75.605 E5.51145
G1 X95.754 Y74.878 E5.54825
G1 X95.52 Y74.124 E5.58501
G1 X95.364 Y73.35 E5.62178
G1 X95.277 Y72.186 E5.67613
G1 X95.278 Y70.803 E5.74053
G1 X94.749 Y70.191 E5.7782
G1 X94.297 Y69.543 E5.81499
G1 X93.913 Y68.853 E5.85176
G1 X93.601 Y68.128 E5.88851
G1 X93.543 Y67.945 E5.89745
G1 X92.913 Y67.347 E5.93789
G1 X92.399 Y66.748 E5.97465
G1 X91.947 Y66.101 E6.0114
G1 X91.563 Y65.411 E6.04817
G1 X91.425 Y65.09 E6.06444
G1 X90.961 Y64.918 E6.08748
G1 X90.252 Y64.57 E6.12426
G1 X89.581 Y64.152 E6.16107
G1 X88.957 Y63.669 E6.19781
G1 X88.384 Y63.126 E6.23457
G1 X87.869 Y62.527 E6.27135
G1 X87.418 Y61.879 E6.30812
G1 X87.034 Y61.188 E6.34493
G1 X86.722 Y60.463 E6.38168
G1 X86.485 Y59.71 E6.41844
G1 X86.326 Y58.936 E6.45523
G1 X86.245 Y58.151 E6.49198
G1 X86.235 Y57.747 E6.51079
G1 X86.236 Y54.349 E6.66902
G1 X86.276 Y53.56 E6.70581
G1 X86.396 Y52.779 E6.7426
G1 X86.594 Y52.015 E6.77935
G1 X86.868 Y51.275 E6.81609
G1 X87.216 Y50.566 E6.85287
G0 F6000 X87.615 Y50.673
G1 F1200 X88.031 Y50.026 E6.88869
G1 X88.513 Y49.426 E6.92452
G1 X89.054 Y48.879 E6.96035
G1 X89.649 Y48.392 E6.99615
G1 X90.291 Y47.969 E7.03195
G1 X90.974 Y47.614 E7.06779
G1 X91.69 Y47.333 E7.10361
G1 X92.279 Y47.169 E7.13208
G1 X92.326 Y46.431 E7.16651
G1 X92.455 Y45.673 E7.20232
G1 X92.662 Y44.932 E7.23814
G1 X92.945 Y44.217 E7.27395
G1 X93.301 Y43.535 E7.30977
G1 X93.725 Y42.893 E7.3456
G1 X94.214 Y42.299 E7.38142
G1 X94.762 Y41.759 E7.41725
G1 X95.363 Y41.279 E7.45306
G1 X96.01 Y40.864 E7.48885
G1 X96.697 Y40.518 E7.52467
G1 X97.416 Y40.245 E7.56048
G1 X98.16 Y40.049 E7.59631
G1 X98.92 Y39.931 E7.63212
G1 X99.676 Y39.892 E7.66737
G1 X120.83 Y39.892 E8.65239
G1 X121.598 Y39.932 E8.6882
G1 X122.358 Y40.051 E8.72402
G1 X123.101 Y40.249 E8.75982
G1 X123.82 Y40.523 E8.79565
G1 X124.506 Y40.87 E8.83145
G1 X125.153 Y41.286 E8.86727
G1 X125.753 Y41.767 E8.90307
G1 X126.3 Y42.308 E8.9389
G1 X126.788 Y42.903 E8.97473
G1 X127.211 Y43.545 E9.01053
G1 X127.566 Y44.228 E9.04637
G1 X127.847 Y44.943 E9.08214
G1 X128.053 Y45.685 E9.118
G1 X128.181 Y46.443 E9.1538
G1 X128.227 Y47.164 E9.18744
G1 X128.764 Y47.307 E9.21331
G1 X129.483 Y47.581 E9.24914
G1 X130.169 Y47.928 E9.28494
G1 X130.816 Y48.344 E9.32076
G1 X131.416 Y48.825 E9.35656
G1 X131.963 Y49.366 E9.39239
G1 X132.451 Y49.961 E9.42822
G1 X132.874 Y50.603 E9.46402
G1 X133.229 Y51.286 E9.49986
G1 X133.51 Y52.001 E9.53564
G1 X133.716 Y52.743 E9.57149
G1 X133.844 Y53.501 E9.60729
G1 X133.893 Y54.35 E9.64689
G1 X133.893 Y57.749 E9.80516
G1 X133.853 Y58.517 E9.84097
G1 X133.734 Y59.277 E9.87679
G1 X133.536 Y60.02 E9.91259
G1 X133.262 Y60.739 E9.94842
G1 X132.915 Y61.425 E9.98422
G1 X132.499 Y62.072 E10.02004
G1 X132.018 Y62.672 E10.05584
G1 X131.477 Y63.219 E10.09167
G1 X130.882 Y63.707 E10.1275
G1 X130.24 Y64.13 E10.1633
G1 X129.557 Y64.485 E10.19914
G1 X128.875 Y64.753 E10.23326
G1 X128.797 Y64.958 E10.24348
G1 X128.45 Y65.644 E10.27927
G1 X128.034 Y66.291 E10.31509
G1 X127.553 Y66.891 E10.3509
G1 X127.012 Y67.438 E10.38672
G1 X126.596 Y67.779 E10.41177
G1 X126.492 Y68.104 E10.42766
G1 X126.182 Y68.808 E10.46348
G1 X125.801 Y69.476 E10.49929
G1 X125.352 Y70.101 E10.53512
G1 X124.841 Y70.676 E10.57094
G1 X124.493 Y70.994 E10.59289
G1 X124.494 Y73.064 E10.68928
G1 X124.454 Y73.832 E10.72509
G1 X124.335 Y74.592 E10.76091
G1 X124.138 Y75.335 E10.7967
G1 X123.865 Y76.054 E10.83251
G1 X123.518 Y76.741 E10.86835
G1 X123.102 Y77.388 E10.90417
G1 X122.621 Y77.988 E10.93998
G1 X122.081 Y78.535 E10.97577
G1 X121.486 Y79.023 E11.0116
G1 X120.844 Y79.447 E11.04742
G1 X120.162 Y79.802 E11.08323
G1 X119.446 Y80.084 E11.11906
G1 X118.705 Y80.29 E11.15487
G1 X117.947 Y80.419 E11.19067
G1 X117.179 Y80.468 E11.22651
G1 X116.201 Y80.414 E11.27212
G1 X112.805 Y80.001 E11.43141
G1 X112.047 Y79.868 E11.46725
G1 X111.785 Y79.794 E11.47993
G1 X107.735 Y79.505 E11.66899
G1 X107.489 Y79.547 E11.68061
G1 X106.577 Y79.6 E11.72315
G1 X104.807 Y79.592 E11.80557
G1 X104.688 Y79.597 E11.81111
G1 X103.05 Y79.591 E11.88739
G1 X102.282 Y79.548 E11.9232
G1 X101.523 Y79.426 E11.959
G1 X100.78 Y79.225 E11.99484
G1 X100.062 Y78.949 E12.03066
G1 X99.377 Y78.6 E12.06646
G1 X98.732 Y78.181 E12.10227
G1 X98.134 Y77.698 E12.13807
G1 X97.589 Y77.155 E12.17389
G1 X97.103 Y76.558 E12.20973
G1 X96.682 Y75.914 E12.24556
G1 X96.33 Y75.231 E12.28134
G1 X96.051 Y74.514 E12.31716
G1 X95.848 Y73.772 E12.35299
G1 X95.723 Y73.013 E12.3888
G1 X95.677 Y72.186 E12.42737
G1 X95.678 Y70.627 E12.49997
G1 X95.445 Y70.397 E12.51521
G1 X94.956 Y69.802 E12.55107
G1 X94.533 Y69.16 E12.58687
G1 X94.178 Y68.478 E12.62267
G1 X93.86 Y67.669 E12.66315
G1 X93.641 Y67.495 E12.67617
G1 X93.094 Y66.954 E12.712
G1 X92.606 Y66.36 E12.74779
G1 X92.182 Y65.718 E12.78362
G1 X91.828 Y65.035 E12.81944
G1 X91.727 Y64.778 E12.8323
G1 X91.045 Y64.518 E12.86628
G1 X90.359 Y64.171 E12.90208
G1 X89.712 Y63.755 E12.9379
G1 X89.112 Y63.274 E12.97371
G1 X88.565 Y62.733 E13.00953
G1 X88.077 Y62.138 E13.04536
G1 X87.654 Y61.496 E13.08116
G1 X87.299 Y60.813 E13.11701
G1 X87.018 Y60.098 E13.15278
G1 X86.812 Y59.356 E13.18864
G1 X86.684 Y58.598 E13.22443
G1 X86.635 Y57.747 E13.26412
G1 X86.636 Y54.349 E13.42235
G1 X86.676 Y53.581 E13.45816
G1 X86.796 Y52.821 E13.49398
G1 X86.994 Y52.078 E13.52979
G1 X87.268 Y51.359 E13.56562
G1 X87.615 Y50.673 E13.60141
G0 F6000 X88.014 Y50.783
G1 F1200 X88.429 Y50.161 E13.63623
G1 X88.908 Y49.586 E13.67108
G1 X89.446 Y49.066 E13.70592
G1 X90.036 Y48.606 E13.74076
G1 X90.672 Y48.212 E13.77559
G1 X91.346 Y47.888 E13.81042
G1 X92.051 Y47.638 E13.84525
G1 X92.688 Y47.487 E13.87573
G1 X92.677 Y47.162 E13.89087
G1 X92.731 Y46.416 E13.9257
G1 X92.864 Y45.68 E13.96053
G1 X93.075 Y44.963 E13.99533
G1 X93.361 Y44.271 E14.03019
G1 X93.72 Y43.615 E14.06502
G1 X94.146 Y43 E14.09985
G1 X94.636 Y42.435 E14.13468
G1 X95.183 Y41.924 E14.16953
G1 X95.781 Y41.476 E14.20432
G1 X96.424 Y41.093 E14.23917
G1 X97.104 Y40.782 E14.27399
G1 X97.814 Y40.544 E14.30886
G1 X98.544 Y40.384 E14.34366
G1 X99.288 Y40.303 E14.37851
G1 X99.676 Y40.292 E14.39658
G1 X120.83 Y40.292 E15.3816
G1 X121.577 Y40.332 E15.41643
G1 X122.315 Y40.451 E15.45124
G1 X123.037 Y40.649 E15.4861
G1 X123.733 Y40.922 E15.52092
G1 X124.396 Y41.269 E15.55576
G1 X125.019 Y41.684 E15.59062
G1 X125.593 Y42.163 E15.62543
G1 X126.114 Y42.7 E15.66027
G1 X126.573 Y43.29 E15.69508
G1 X126.968 Y43.926 E15.72994
G1 X127.292 Y44.6 E15.76476
G1 X127.542 Y45.305 E15.79959
G1 X127.716 Y46.033 E15.83444
G1 X127.811 Y46.775 E15.86928
G1 X127.825 Y47.467 E15.90151
G1 X128.7 Y47.707 E15.94375
G1 X129.396 Y47.98 E15.97857
G1 X130.059 Y48.327 E16.01341
G1 X130.682 Y48.742 E16.04827
G1 X131.256 Y49.221 E16.08308
G1 X131.777 Y49.758 E16.11792
G1 X132.236 Y50.348 E16.15273
G1 X132.631 Y50.984 E16.18759
G1 X132.955 Y51.658 E16.22241
G1 X133.205 Y52.363 E16.25724
G1 X133.379 Y53.091 E16.29209
G1 X133.474 Y53.833 E16.32693
G1 X133.493 Y54.35 E16.35102
G1 X133.493 Y57.749 E16.50929
G1 X133.453 Y58.496 E16.54412
G1 X133.334 Y59.234 E16.57893
G1 X133.136 Y59.956 E16.61379
G1 X132.863 Y60.652 E16.6486
G1 X132.516 Y61.315 E16.68345
G1 X132.101 Y61.938 E16.7183
G1 X131.622 Y62.512 E16.75312
G1 X131.085 Y63.033 E16.78796
G1 X130.495 Y63.492 E16.82276
G1 X129.859 Y63.887 E16.85763
G1 X129.185 Y64.211 E16.89245
G1 X128.572 Y64.429 E16.92274
G1 X128.398 Y64.871 E16.94486
G1 X128.051 Y65.534 E16.97971
G1 X127.636 Y66.157 E17.01456
G1 X127.157 Y66.731 E17.04937
G1 X126.62 Y67.252 E17.08421
G1 X126.255 Y67.536 E17.10575
G1 X126.096 Y68.02 E17.12947
G1 X125.787 Y68.701 E17.16429
G1 X125.408 Y69.346 E17.19913
G1 X124.962 Y69.947 E17.23398
G1 X124.454 Y70.496 E17.26881
G1 X124.093 Y70.812 E17.29115
G1 X124.094 Y73.064 E17.39601
G1 X124.054 Y73.811 E17.43084
G1 X123.935 Y74.55 E17.4657
G1 X123.738 Y75.271 E17.5005
G1 X123.465 Y75.968 E17.53535
G1 X123.119 Y76.631 E17.57018
G1 X122.705 Y77.254 E17.60501
G1 X122.226 Y77.829 E17.63986
G1 X121.689 Y78.349 E17.67466
G1 X121.099 Y78.809 E17.7095
G1 X120.463 Y79.204 E17.74436
G1 X119.789 Y79.528 E17.77918
G1 X119.085 Y79.779 E17.81399
G1 X118.357 Y79.953 E17.84884
G1 X117.615 Y80.049 E17.88368
G1 X116.867 Y80.064 E17.91851
G1 X116.249 Y80.017 E17.94737
G1 X112.853 Y79.604 E18.10667
G1 X112.116 Y79.474 E18.14152
G1 X111.851 Y79.397 E18.15437
G1 X107.714 Y79.102 E18.34749
G1 X107.319 Y79.164 E18.36611
G1 X106.579 Y79.2 E18.40061
G1 X103.051 Y79.191 E18.56489
G1 X102.305 Y79.148 E18.59968
G1 X101.566 Y79.026 E18.63456
G1 X100.846 Y78.826 E18.66936
G1 X100.15 Y78.55 E18.70422
G1 X99.489 Y78.201 E18.73903
G1 X98.868 Y77.784 E18.77386
G1 X98.295 Y77.303 E18.80869
G1 X97.777 Y76.763 E18.84354
G1 X97.319 Y76.172 E18.87835
G1 X96.927 Y75.534 E18.91322
G1 X96.605 Y74.859 E18.94804
G1 X96.358 Y74.153 E18.98287
G1 X96.187 Y73.425 E19.01769
G1 X96.094 Y72.683 E19.05251
G1 X96.077 Y72.187 E19.07562
G1 X96.078 Y70.467 E19.15571
G1 X95.631 Y70.005 E19.18565
G1 X95.171 Y69.415 E19.22048
G1 X94.776 Y68.779 E19.25534
G1 X94.452 Y68.105 E19.29017
G1 X94.217 Y67.446 E19.32274
G1 X93.801 Y67.099 E19.34797
G1 X93.28 Y66.562 E19.38281
G1 X92.82 Y65.972 E19.41765
G1 X92.426 Y65.337 E19.45244
G1 X92.101 Y64.663 E19.48729
G1 X92.024 Y64.446 E19.49801
G1 X91.828 Y64.392 E19.50747
G1 X91.132 Y64.119 E19.54229
G1 X90.469 Y63.772 E19.57713
G1 X89.846 Y63.357 E19.61199
G1 X89.272 Y62.878 E19.6468
G1 X88.751 Y62.341 E19.68164
G1 X88.292 Y61.751 E19.71645
G1 X87.897 Y61.115 E19.75131
G1 X87.573 Y60.441 E19.78613
G1 X87.323 Y59.736 E19.82096
G1 X87.149 Y59.008 E19.85581
G1 X87.054 Y58.266 E19.89065
G1 X87.035 Y57.747 E19.91483
G1 X87.036 Y54.349 E20.07306
G1 X87.076 Y53.602 E20.10789
G1 X87.196 Y52.864 E20.1427
G1 X87.394 Y52.142 E20.17756
G1 X87.667 Y51.446 E20.21238
G1 X88.014 Y50.783 E20.24722
G0 F6000 X88.412 Y50.897
G1 F1200 X88.826 Y50.299 E20.28109
G1 X89.303 Y49.751 E20.31492
G1 X89.837 Y49.259 E20.34873
G1 X90.422 Y48.829 E20.38254
G1 X91.05 Y48.465 E20.41634
G1 X91.715 Y48.172 E20.45017
G1 X92.408 Y47.955 E20.48399
G1 X93.099 Y47.819 E20.51678
G1 X93.078 Y47.128 E20.54897
G1 X93.136 Y46.404 E20.58279
G1 X93.273 Y45.69 E20.61665
G1 X93.488 Y44.997 E20.65043
G1 X93.778 Y44.33 E20.6843
G1 X94.139 Y43.7 E20.71811
G1 X94.567 Y43.114 E20.7519
G1 X95.057 Y42.577 E20.78575
G1 X95.603 Y42.098 E20.81957
G1 X96.199 Y41.682 E20.85341
G1 X96.836 Y41.334 E20.88721
G1 X97.508 Y41.058 E20.92104
G1 X98.206 Y40.858 E20.95485
G1 X98.922 Y40.735 E20.98868
G1 X99.676 Y40.692 E21.02384
G1 X120.83 Y40.692 E22.00886
G1 X121.555 Y40.732 E22.04267
G1 X122.272 Y40.851 E22.07652
G1 X122.971 Y41.049 E22.11035
G1 X123.644 Y41.322 E22.14416
G1 X124.283 Y41.667 E22.17798
G1 X124.88 Y42.081 E22.21181
G1 X125.428 Y42.557 E22.24561
G1 X125.921 Y43.091 E22.27945
G1 X126.351 Y43.676 E22.31326
G1 X126.715 Y44.305 E22.3471
G1 X127.008 Y44.97 E22.38093
G1 X127.226 Y45.663 E22.41476
G1 X127.366 Y46.375 E22.44855
G1 X127.427 Y47.099 E22.48238
G1 X127.408 Y47.821 E22.51601
G1 X127.935 Y47.909 E22.54089
G1 X128.634 Y48.107 E22.57472
G1 X129.307 Y48.38 E22.60854
G1 X129.946 Y48.725 E22.64235
G1 X130.543 Y49.139 E22.67618
G1 X131.091 Y49.615 E22.70998
G1 X131.584 Y50.149 E22.74382
G1 X132.014 Y50.734 E22.77763
G1 X132.378 Y51.363 E22.81147
G1 X132.671 Y52.028 E22.84531
G1 X132.889 Y52.721 E22.87913
G1 X133.029 Y53.433 E22.91292
G1 X133.093 Y54.35 E22.95573
G1 X133.093 Y57.749 E23.114
